packages/foundations/assets/icons/functional/images/technology/light_bulb_24.svg

<svg width="24" height="24" viewBox="0 0 24 24" fill="none" xmlns="http://www.w3.org/2000/svg">
<g clip-path="url(#clip0_187_593)">
<path fill-rule="evenodd" clip-rule="evenodd" d="M15.001 18.5005H8.999C8.447 18.5005 7.999 18.9475 7.999 19.5005C7.999 20.0535 8.447 20.5005 8.999 20.5005H10V20.9985C10 21.5515 10.448 21.9985 11 21.9985H13.002C13.554 21.9985 14.002 21.5515 14.002 20.9985V20.5005H15.001C15.553 20.5005 16.001 20.0535 16.001 19.5005C16.001 18.9475 15.553 18.5005 15.001 18.5005ZM12 2.0015C15.86 2.0015 19 5.1425 19 9.0015C19 11.6265 17.777 12.8965 16.884 13.8235C16.28 14.4515 15.989 14.7755 15.989 15.2615V16.5005C15.989 17.0535 15.541 17.5005 14.989 17.5005H9.011C8.459 17.5005 8.011 17.0535 8.011 16.5005V15.2615C8.011 14.7745 7.72 14.4515 7.116 13.8235C6.223 12.8975 5 11.6265 5 9.0015C5 5.1425 8.14 2.0015 12 2.0015ZM11.998 4.0015C9.241 4.0015 6.998 6.2445 6.998 9.0015C6.998 10.8205 7.755 11.6055 8.555 12.4375C9.237 13.1455 10.01 13.9485 10.01 15.2615V15.5005H11.004V13.0115C11.004 12.4585 11.452 12.0115 12.004 12.0115C12.556 12.0115 13.004 12.4585 13.004 13.0115V15.5005H13.988V15.2615C13.988 13.9485 14.761 13.1455 15.441 12.4375C16.242 11.6055 16.998 10.8195 16.998 9.0015C16.998 6.2445 14.755 4.0015 11.998 4.0015ZM10.613 5.2515C11.129 5.0625 11.706 5.3205 11.899 5.8405C12.092 6.3565 11.829 6.9335 11.311 7.1265C10.823 7.3075 10.415 7.6835 10.193 8.1565C10.022 8.5185 9.662 8.73149 9.287 8.73149C9.144 8.73149 9 8.7005 8.862 8.6365C8.362 8.4015 8.147 7.8065 8.382 7.3065C8.824 6.3625 9.637 5.6135 10.612 5.2505L10.613 5.2515Z" fill="#1A1C1F"/>
</g>
<defs>
<clipPath id="clip0_187_593">
<rect width="24" height="24" fill="white"/>
</clipPath>
</defs>
</svg>

<svg xmlns="http://www.w3.org/2000/svg" width="24" height="24" fill="none"><g clip-path="url(#a)"><path fill="#1A1C1F" fill-rule="evenodd" d="M15.001 18.5H8.999a1 1 0 1 0 0 2H10v.498a1 1 0 0 0 1 1h2.002a1 1 0 0 0 1-1V20.5h.999a1 1 0 1 0 0-2M12 2.002c3.86 0 7 3.14 7 7 0 2.624-1.223 3.894-2.116 4.821-.604.628-.895.952-.895 1.438v1.24a1 1 0 0 1-1 1H9.011a1 1 0 0 1-1-1v-1.24c0-.486-.291-.81-.895-1.437C6.223 12.897 5 11.627 5 9.002c0-3.86 3.14-7 7-7m-.002 2c-2.757 0-5 2.243-5 5 0 1.818.757 2.603 1.557 3.435.682.709 1.455 1.511 1.455 2.825v.239h.994v-2.49a1 1 0 1 1 2 0v2.49h.984v-.24c0-1.312.773-2.115 1.453-2.823.801-.833 1.557-1.619 1.557-3.437 0-2.756-2.243-5-5-5m-1.385 1.25a1 1 0 0 1 .698 1.875 2.02 2.02 0 0 0-1.118 1.03 1.003 1.003 0 0 1-1.331.48 1 1 0 0 1-.48-1.33 4.04 4.04 0 0 1 2.23-2.057z" clip-rule="evenodd"/></g><defs><clipPath id="a"><path fill="#fff" d="M0 0h24v24H0z"/></clipPath></defs></svg>
